X:61
T:Quadrille
S:John Moore's Book 2
Z:Transcribed by Edmund Spriggs 04/2021
%%VWML: Moore1-4494-p45-0
F:http://www.vwml.org/record/Moore2/4494/p45
M:6/8
L:1/8
K:G
d|!segno!g2B BcB|BcB e2d|g2de2d|cBA GBd|
g2B BcB|BcB e2d|g2de2d|cBA G2:|
|:d3 def|g3 gfg|a3 aga|b3g3|
d3 def|g3-g2b|baf age|ded de!segno!f"D.C.":|

